X:1
T:Title
%%score { 1 | 2 }
L:1/8
M:9/8
K:C
V:1 treble nm="Grand Piano"
V:2 bass 
V:1
 z3 z3[Q:1/4=100] [EG][_E^F][=EG] | [_EA]3 .[=EG]3 [Ge][Ec][FA] | [EG]6 FEF | %3
 B3 A3 [EA][EG][_E^F] | [EG]6 [EG][_E^F][=EG] | [Ec]3 [CEG]3 [CG][CGc][CGB] | A6 ABc | %7
 c3 G3 [B,G][B,D][B,E] |[M:3/4] C6 |[M:3/8] GGG |[M:9/8] d3 .B3 GGG | %11
 [Ge]3 .[EGc]3 [CFA][CFA][A,FA] | [^Fd]3 [Fe]2 [Fd] [Fc][FA][Fe] | d6 GGG | %14
 [Ec]3 .[EG]3 [Gc][Gc][Gc] | d3 .A3 cBA | G3 c3 dAB |[M:3/4] [Ec]6 |] %18
V:2
 z3 z3 [C,C][C,C][C,C] | [C,^F,]3 .[C,G,]3 [C,G,][C,G,][C,C] | %2
 [C,C]6[K:treble] [G,B,D][G,_B,^C][G,=B,D] | [G,DF]3 [G,B,F]3[K:bass] [C,C][C,C][C,C] | %4
 [C,C]6 [C,C][C,C][C,C] | [C,G,]3 C,3 E,E,E, | [F,CF]6 [^F,CD][F,B,D][F,A,D] | %7
 [G,E]3 [G,CE]3 [G,,F,][G,,F,][G,,G,] |[M:3/4] [C,E,]6 |[M:3/8][K:treble] [G,B,F][G,B,F][G,B,F] | %10
[M:9/8] [G,B,F]3 .[G,DF]3 [G,B,F][G,B,F][G,B,F] | [C,C]3 .C,3 F,F,F, | %12
 [D,A,]3 [D,A,]2 [D,A,] [D,A,][D,C][D,C] | [G,B,G]6 [G,B,F][G,B,F][G,B,F] | %14
 [C,G,]3 .[C,C]3 [E,G,][E,G,][E,G,] | [F,A,F]3 .[F,CF]3 [^F,A,D][F,B,D][F,CD] | %16
 [G,CE]3 [G,E]3 [G,B,F][G,CF][G,DF] |[M:3/4][K:bass] [C,C]6 |] %18

